svg/u1f99d.svg

<svg viewBox="0 0 128 128" xmlns="http://www.w3.org/2000/svg">
  <path d="M9.93,67.23c0,0,3.52-5.7,9.01-11.76c2.01-2.21,5.07-5.49,5.21-6.76c0.14-1.27-2.11-8.09-3.24-13.73 c-0.94-4.71-1.41-10.7,0.28-12.53c1.69-1.83,11.23,0.04,16.89,2.82c5.8,2.84,8.77,5.34,9.57,5.35c1,0.01,6.9-4.65,16.05-4.5 s15.63,4.36,16.89,4.36s5.34-3.04,10.98-5.98c6.62-3.45,14.36-3.73,15.91-2.6c1.55,1.13,0.56,9.29-0.56,13.51 c-1.44,5.39-3.87,11.47-3.73,12.6c0.14,1.13,2.6,2.32,7.53,7.81c3.89,4.34,8.66,12.81,8.66,12.81L66.67,79.48L9.93,67.23z" fill="#B0B0B0"/>
  <path d="M5.71,75.12c0,0.84,8.73,5.63,8.73,5.63s-10.42,3.8-10.42,4.5c0,1.13,15.91,16.75,31.53,22.1 c13.02,4.46,40.22,9.99,61.94-1.2c18.86-9.71,25.06-17.25,25.06-18.37s-8.45-5.63-8.45-5.63s8.87-6.05,8.87-6.9 c0-0.84-3.52-7.04-4.65-8.87s-4.5-7.18-5.91-7.74c-1.41-0.56-27.73-11.54-36.46-5.49c-4.56,3.16-5.21,6.76-5.21,10.28 c0,6.2,0.56,11.54,0.56,11.54s-2.11-2.32-5.77-2.39c-3.45-0.07-5.42,1.9-5.42,1.9s1.06-8.66,0.92-11.9 c-0.14-3.24-0.84-7.32-6.48-10.42c-8.07-4.44-28.19,3.62-34.35,7.11c-4.22,2.39-8.87,5.56-10.42,7.95S5.71,74.13,5.71,75.12z" fill="#DEDEDE"/>
  <path d="M30.63,44.33c0.32,0,2.8-2.54,5.44-4.69c2.78-2.27,5.91-4.55,5.91-4.79c0-0.47-11.64-9.01-14.92-6.48 S29.88,44.33,30.63,44.33z" fill="#5D6268"/>
  <path d="M86.66,34.66c-0.03,0.33,3.2,2.21,5.73,4.5c2.53,2.3,5.02,4.65,5.35,4.6 c0.66-0.09,6.29-12.86,3.66-15.11S86.75,33.73,86.66,34.66z" fill="#5D6268"/>
  <path d="M43.02,102.52c1.82-0.71,1.5-7.6,4.6-14.27c3.1-6.66,6.66-9.95,8.73-11.36 c2.06-1.41,3.66-1.88,4.79-3.38c1.13-1.5,1.01-8.48-0.09-10.93c-1.5-3.33-5.63-7.93-13.8-7.37c-8.17,0.56-14.92,9.1-18.68,12.67 c-3.75,3.57-9.48,7.41-9.39,14.73c0.09,7.32,6.19,12.39,9.95,15.11C32.88,100.46,40.39,103.55,43.02,102.52z" fill="#464C4F"/>
  <path d="M71.17,75.02c-1.69-1.13-1.03-6.19-0.94-8.54c0.09-2.35,1.03-8.35,7.41-10.04s9.76,0.84,13.61,3.47 c3.85,2.63,7.79,6.15,10.51,8.07c6.1,4.32,11.26,9.76,9.95,15.58c-1.31,5.82-5.11,9.45-10.98,13.61c-6.1,4.32-11.73,7.88-13.7,6.66 s-1.31-11.26-5.73-18.21C76.9,78.68,73.15,76.34,71.17,75.02z" fill="#464C4F"/>
  <path d="M64.84,82.15c-5.68,0.15-8.29,3.83-8.35,7.04c-0.09,4.55,1.97,5.44,2.91,6.01 c1.17,0.7,2.87,1.24,2.06,2.77c-0.84,1.6-1.64,2.25-5.11,1.97c-2.15-0.17-3.01-2.28-5.16-1.64c-2.86,0.84-0.28,5.57,6.1,5.82 c5.96,0.23,7.88-2.82,7.88-2.82s2.21,3.05,7.6,2.72c5.53-0.34,8.4-5.21,5.21-6.15c-2.29-0.67-1.92,2.16-5.11,2.3 c-2.3,0.1-3.51-0.58-4.36-1.69c-0.47-0.61-0.42-2.06,0.23-2.53c0.66-0.47,3.83-1.69,3.94-6.1C72.77,86.14,70,82.01,64.84,82.15z" fill="#2F2F2F"/>
  <path d="M54.47,67.49c0,3.41-1.5,6.36-4.58,6.17c-2.52-0.15-4.67-2.49-4.58-6.17c0.09-3.41,2.02-5.7,4.55-5.7 S54.47,64.08,54.47,67.49z" fill="#000101"/>
  <path d="M85.77,68.08c-0.13,3.41-0.75,6.76-4.32,6.43c-2.52-0.23-4.31-2.53-4.08-6.21 c0.21-3.4,1.97-5.85,4.5-5.75C84.4,62.63,85.89,64.67,85.77,68.08z" fill="#000101"/>
  <path d="M47.15,64.51c-0.46,0.93-0.41,2.15,0.28,2.53c0.84,0.47,2.12-0.29,2.58-1.22s0.1-1.99-0.61-2.35 C48.69,63.12,47.61,63.58,47.15,64.51z" fill="#B0B0B0"/>
  <path d="M79.01,65.54c-0.46,0.93-0.46,1.96,0.23,2.35c0.84,0.47,1.93-0.06,2.39-0.99 c0.46-0.93,0.28-1.95-0.42-2.3S79.47,64.62,79.01,65.54z" fill="#B0B0B0"/>
</svg>

<svg viewBox="0 0 128 128" xmlns="http://www.w3.org/2000/svg">
  <defs/>
  <path d="M9.93,67.23 C9.93,67.23 13.45,61.53 18.94,55.47 C20.95,53.26 24.01,49.98 24.15,48.71 C24.29,47.44 22.04,40.62 20.91,34.98 C19.97,30.27 19.5,24.28 21.19,22.45 C22.88,20.62 32.42,22.49 38.08,25.27 C43.88,28.11 46.85,30.61 47.65,30.62 C48.65,30.63 54.55,25.97 63.7,26.12 C72.85,26.27 79.33,30.48 80.59,30.48 C81.85,30.48 85.93,27.44 91.57,24.5 C98.19,21.05 105.93,20.77 107.48,21.9 C109.03,23.03 108.04,31.19 106.92,35.41 C105.48,40.8 103.05,46.88 103.19,48.01 C103.33,49.14 105.79,50.33 110.72,55.82 C114.61,60.16 119.38,68.63 119.38,68.63 L66.67,79.48 L9.93,67.23 Z" fill="#B0B0B0"/>
  <path d="M5.71,75.12 C5.71,75.96 14.44,80.75 14.44,80.75 C14.44,80.75 4.02,84.55 4.02,85.25 C4.02,86.38 19.93,102 35.55,107.35 C48.57,111.81 75.77,117.34 97.49,106.15 C116.35,96.44 122.55,88.9 122.55,87.78 C122.55,86.66 114.1,82.15 114.1,82.15 C114.1,82.15 122.97,76.1 122.97,75.25 C122.97,74.41 119.45,68.21 118.32,66.38 C117.19,64.55 113.82,59.2 112.41,58.64 C111,58.08 84.68,47.1 75.95,53.15 C71.39,56.31 70.74,59.91 70.74,63.43 C70.74,69.63 71.3,74.97 71.3,74.97 C71.3,74.97 69.19,72.65 65.53,72.58 C62.08,72.51 60.11,74.48 60.11,74.48 C60.11,74.48 61.17,65.82 61.03,62.58 C60.89,59.34 60.19,55.26 54.55,52.16 C46.48,47.72 26.36,55.78 20.2,59.27 C15.98,61.66 11.33,64.83 9.78,67.22 C8.23,69.61 5.71,74.13 5.71,75.12 Z" fill="#DEDEDE"/>
  <path d="M30.63,44.33 C30.95,44.33 33.43,41.79 36.07,39.64 C38.85,37.37 41.98,35.09 41.98,34.85 C41.98,34.38 30.34,25.84 27.06,28.37 C23.78,30.9 29.88,44.33 30.63,44.33 Z" fill="#5D6268"/>
  <path d="M86.66,34.66 C86.63,34.99 89.86,36.87 92.39,39.16 C94.92,41.46 97.41,43.81 97.74,43.76 C98.4,43.67 104.03,30.9 101.4,28.65 C98.77,26.4 86.75,33.73 86.66,34.66 Z" fill="#5D6268"/>
  <path d="M43.02,102.52 C44.84,101.81 44.52,94.92 47.62,88.25 C50.72,81.59 54.28,78.3 56.35,76.89 C58.41,75.48 60.01,75.01 61.14,73.51 C62.27,72.01 62.15,65.03 61.05,62.58 C59.55,59.25 55.42,54.65 47.25,55.21 C39.08,55.77 32.33,64.31 28.57,67.88 C24.82,71.45 19.09,75.29 19.18,82.61 C19.27,89.93 25.37,95 29.13,97.72 C32.88,100.46 40.39,103.55 43.02,102.52 Z" fill="#464C4F"/>
  <path d="M71.17,75.02 C69.48,73.89 70.14,68.83 70.23,66.48 C70.32,64.13 71.26,58.13 77.64,56.44 C84.02,54.75 87.4,57.28 91.25,59.91 C95.1,62.54 99.04,66.06 101.76,67.98 C107.86,72.3 113.02,77.74 111.71,83.56 C110.4,89.38 106.6,93.01 100.73,97.17 C94.63,101.49 89,105.05 87.03,103.83 C85.06,102.61 85.72,92.57 81.3,85.62 C76.9,78.68 73.15,76.34 71.17,75.02 Z" fill="#464C4F"/>
  <path d="M64.84,82.15 C59.16,82.3 56.55,85.98 56.49,89.19 C56.4,93.74 58.46,94.63 59.4,95.2 C60.57,95.9 62.27,96.44 61.46,97.97 C60.62,99.57 59.82,100.22 56.35,99.94 C54.2,99.77 53.34,97.66 51.19,98.3 C48.33,99.14 50.91,103.87 57.29,104.12 C63.25,104.35 65.17,101.3 65.17,101.3 C65.17,101.3 67.38,104.35 72.77,104.02 C78.3,103.68 81.17,98.81 77.98,97.87 C75.69,97.2 76.06,100.03 72.87,100.17 C70.57,100.27 69.36,99.59 68.51,98.48 C68.04,97.87 68.09,96.42 68.74,95.95 C69.4,95.48 72.57,94.26 72.68,89.85 C72.77,86.14 70,82.01 64.84,82.15 Z" fill="#2F2F2F"/>
  <path d="M54.47,67.49 C54.47,70.9 52.97,73.85 49.89,73.66 C47.37,73.51 45.22,71.17 45.31,67.49 C45.4,64.08 47.33,61.79 49.86,61.79 C52.39,61.79 54.47,64.08 54.47,67.49 Z" fill="#000101"/>
  <path d="M85.77,68.08 C85.64,71.49 85.02,74.84 81.45,74.51 C78.93,74.28 77.14,71.98 77.37,68.3 C77.58,64.9 79.34,62.45 81.87,62.55 C84.4,62.63 85.89,64.67 85.77,68.08 Z" fill="#000101"/>
  <path d="M47.15,64.51 C46.69,65.44 46.74,66.66 47.43,67.04 C48.27,67.51 49.55,66.75 50.01,65.82 C50.47,64.89 50.11,63.83 49.4,63.47 C48.69,63.12 47.61,63.58 47.15,64.51 Z" fill="#B0B0B0"/>
  <path d="M79.01,65.54 C78.55,66.47 78.55,67.5 79.24,67.89 C80.08,68.36 81.17,67.83 81.63,66.9 C82.09,65.97 81.91,64.95 81.21,64.6 C80.51,64.25 79.47,64.62 79.01,65.54 Z" fill="#B0B0B0"/>
</svg>
